src/assets/images/sponsors/kdanmobile.svg

<svg fill="none" height="240" viewBox="0 0 300 240" width="300" xmlns="http://www.w3.org/2000/svg" xmlns:xlink="http://www.w3.org/1999/xlink"><clipPath id="a"><path d="m90 32h120v176h-120z"/></clipPath><path d="m0 0h300v240h-300z" fill="#fff"/><g clip-path="url(#a)"><path d="m158.34 117.392c1.109-1.392 2.719-2.351 4.558-2.635v-79.9327c0-1.7702-1.447-2.8243-2.84-2.8243-.514 0-1.272.1486-1.962.8243l-40.257 40.1622c-.527.527-.825 1.2432-.825 1.9865 0 .7567.298 1.4594.825 1.9865l40.257 40.2165c.081.081.162.148.244.216z" fill="#00a89b"/><path d="m163.994 117.041c-2.692 0-4.897 2.189-4.897 4.891 0 2.703 2.191 4.892 4.897 4.892 2.705 0 4.897-2.189 4.897-4.892 0-2.702-2.192-4.891-4.897-4.891z" fill="#878787"/><path d="m202.885 76.9729c-.352-.8378-1.218-1.7297-2.598-1.7297h-35.035v38.7698l37.024-33.9725c.974-.973.96-2.2298.609-3.0676z" fill="#96d200"/><path d="m112.509 175.77c-1.15 0-2.286-.716-2.949-1.797l-9.388-19.959-3.7331 4.202v14.73c0 1.568-1.3798 2.824-3.1248 2.824s-3.1924-1.256-3.1924-2.824v-37.919c0-1.567 1.4474-2.77 3.1924-2.77s3.1248 1.203 3.1248 2.77v14.784c4.5181-5.527 9.0231-11.122 13.5411-16.581.541-.595 1.569-.96 2.462-.96 2.286 0 3.855 2.703 2.407 4.514l-10.172 12.378 10.592 22.662c.717 1.622-.487 3.973-2.773 3.973z" fill="#00a89b"/><path d="m123.75 175.405c-1.745 0-3.192-1.202-3.192-2.77v-37.324c0-1.5 1.447-2.703 3.192-2.703h8.658c6.98 0 12.634 5.473 12.634 12.257v18.216c0 6.797-5.654 12.324-12.634 12.324zm3.071-5.594h5.6c3.544 0 6.372-3 6.372-6.73v-18.216c0-3.73-2.828-6.73-6.372-6.73h-5.6z" fill="#00a89b"/><path d="m178.793 172.216c.365 1.622-.961 3.541-3.125 3.541-1.326 0-2.462-.784-2.881-1.987l-2.53-8.054h-12.147c-.839 2.77-1.57 5.351-2.408 8.054-.365 1.135-1.624 1.987-3.003 1.987-1.799 0-3.612-1.744-2.949-3.609v.054l11.43-37.986c.42-1.149 1.691-1.987 3.071-1.987s2.53.838 2.949 1.987l11.552 37.986h.054zm-10.173-12.014-4.396-16.581-4.518 16.581h8.901z" fill="#00a89b"/><path d="m203.764 174.203-13.838-27.771.541 26.5c0 1.568-1.38 2.825-3.125 2.825s-3.125-1.257-3.125-2.825v-37.919c0-1.567 1.569-2.77 3.125-2.77 1.15 0 2.286.716 2.773 1.568l13.838 27.648-.541-26.446c0-1.567 1.38-2.77 3.125-2.77s3.125 1.203 3.125 2.77v37.919c0 1.325-1.028 2.406-2.408 2.771l.122-.054c-.365.121-.541.121-.839.121-1.082 0-2.286-.662-2.773-1.567z" fill="#00a89b"/><g fill="#878787"><path d="m108.14 206.595v-19.649l-6.439 12.865c-.23.513-.703.784-1.258.784-.514 0-.9875-.271-1.258-.784l-6.3984-12.865v19.649c0 .784-.6223 1.419-1.4204 1.419s-1.3797-.622-1.3797-1.419v-25.581c.0405-.784.6222-1.419 1.3797-1.419.5141 0 1.0146.311 1.2581.784l7.8187 15.689 7.859-15.689c.23-.473.744-.784 1.258-.784.826 0 1.38.743 1.38 1.419v25.581c0 .784-.622 1.419-1.38 1.419-.784 0-1.42-.622-1.42-1.419z"/><path d="m117.014 200.189v-12.783c0-4.271 3.49-7.811 7.819-7.811 4.328 0 7.818 3.527 7.818 7.811v12.783c0 4.311-3.49 7.811-7.818 7.811-4.329 0-7.819-3.486-7.819-7.811zm2.787-12.783v12.783c0 2.744 2.232 5.027 5.032 5.027s5.032-2.27 5.032-5.027v-12.783c0-2.744-2.273-5.027-5.032-5.027-2.76 0-5.032 2.27-5.032 5.027z"/><path d="m154.525 199.567c0 4.514-3.693 8.203-8.211 8.203h-6.209c-.744 0-1.38-.621-1.38-1.419v-25.148c0-.744.622-1.379 1.38-1.379h6.209c3.774 0 7.183 3.135 7.183 7.135 0 2.311-1.096 4.392-2.787 5.69 2.273 1.486 3.815 4 3.815 6.905zm-13-16.945v8.783h4.789c2.435 0 4.396-2 4.396-4.432 0-2.433-1.961-4.351-4.396-4.351zm10.173 16.945c0-2.986-2.395-5.378-5.384-5.378h-4.789v10.743h4.789c2.989 0 5.384-2.392 5.384-5.378z"/><path d="m171.556 206.352c0 .783-.623 1.419-1.421 1.419h-9.82c-.785 0-1.421-.622-1.421-1.419 0-.798.622-1.419 1.421-1.419h3.53v-22.284h-3.53c-.785 0-1.421-.622-1.421-1.419s.622-1.419 1.421-1.419h9.82c.785 0 1.421.622 1.421 1.419s-.623 1.419-1.421 1.419h-3.49v22.284h3.49c.785 0 1.421.621 1.421 1.419z"/><path d="m191.387 206.122c0 .784-.623 1.405-1.421 1.405h-11.43c-.785 0-1.407-.621-1.407-1.405v-25.108c0-.784.622-1.419 1.407-1.419.784 0 1.38.621 1.38 1.419v23.689h10.05c.785 0 1.421.621 1.421 1.419z"/><path d="m210 206.351c0 .784-.622 1.419-1.42 1.419h-11.309c-.744 0-1.38-.621-1.38-1.419v-25.148c0-.744.622-1.379 1.38-1.379h11.187c.784 0 1.407.622 1.407 1.379 0 .783-.623 1.419-1.407 1.419h-9.78v8.702h8.644c.784 0 1.42.622 1.42 1.406 0 .783-.622 1.378-1.42 1.378h-8.644v10.824h9.902c.784 0 1.42.622 1.42 1.419z"/></g></g></svg>

<svg width="300" height="240" viewBox="0 0 300 240" fill="none" xmlns="http://www.w3.org/2000/svg">
<rect width="300" height="240" fill="white"/>
<g clip-path="url(#clip0_1908_43970)">
<path d="M158.34 117.392C159.449 116 161.059 115.041 162.898 114.757V34.8243C162.898 33.0541 161.451 32 160.058 32C159.544 32 158.786 32.1486 158.096 32.8243L117.839 72.9865C117.312 73.5135 117.014 74.2297 117.014 74.973C117.014 75.7297 117.312 76.4324 117.839 76.9595L158.096 117.176C158.177 117.257 158.258 117.324 158.34 117.392Z" fill="#00A89B"/>
<path d="M163.994 117.041C161.302 117.041 159.097 119.23 159.097 121.932C159.097 124.635 161.288 126.824 163.994 126.824C166.699 126.824 168.891 124.635 168.891 121.932C168.891 119.23 166.699 117.041 163.994 117.041Z" fill="#878787"/>
<path d="M202.885 76.9729C202.533 76.1351 201.667 75.2432 200.287 75.2432H165.252V114.013L202.276 80.0405C203.25 79.0675 203.236 77.8107 202.885 76.9729Z" fill="#96D200"/>
<path d="M112.509 175.77C111.359 175.77 110.223 175.054 109.56 173.973L100.172 154.014L96.4389 158.216V172.946C96.4389 174.514 95.0591 175.77 93.3141 175.77C91.5691 175.77 90.1217 174.514 90.1217 172.946V135.027C90.1217 133.46 91.5691 132.257 93.3141 132.257C95.0591 132.257 96.4389 133.46 96.4389 135.027V149.811C100.957 144.284 105.462 138.689 109.98 133.23C110.521 132.635 111.549 132.27 112.442 132.27C114.728 132.27 116.297 134.973 114.849 136.784L104.677 149.162L115.269 171.824C115.986 173.446 114.782 175.797 112.496 175.797L112.509 175.77Z" fill="#00A89B"/>
<path d="M123.75 175.405C122.005 175.405 120.558 174.203 120.558 172.635V135.311C120.558 133.811 122.005 132.608 123.75 132.608H132.408C139.388 132.608 145.042 138.081 145.042 144.865V163.081C145.042 169.878 139.388 175.405 132.408 175.405H123.75ZM126.821 169.811H132.421C135.965 169.811 138.793 166.811 138.793 163.081V144.865C138.793 141.135 135.965 138.135 132.421 138.135H126.821V169.811Z" fill="#00A89B"/>
<path d="M178.793 172.216C179.158 173.838 177.832 175.757 175.668 175.757C174.342 175.757 173.206 174.973 172.787 173.77L170.257 165.716H158.11C157.271 168.486 156.54 171.067 155.702 173.77C155.337 174.905 154.078 175.757 152.699 175.757C150.9 175.757 149.087 174.013 149.75 172.148V172.202L161.18 134.216C161.6 133.067 162.871 132.229 164.251 132.229C165.631 132.229 166.781 133.067 167.2 134.216L178.752 172.202H178.806L178.793 172.216ZM168.62 160.202L164.224 143.621L159.706 160.202H168.607H168.62Z" fill="#00A89B"/>
<path d="M203.764 174.203L189.926 146.432L190.467 172.932C190.467 174.5 189.087 175.757 187.342 175.757C185.597 175.757 184.217 174.5 184.217 172.932V135.013C184.217 133.446 185.786 132.243 187.342 132.243C188.492 132.243 189.628 132.959 190.115 133.811L203.953 161.459L203.412 135.013C203.412 133.446 204.792 132.243 206.537 132.243C208.282 132.243 209.662 133.446 209.662 135.013V172.932C209.662 174.257 208.634 175.338 207.254 175.703L207.376 175.649C207.011 175.77 206.835 175.77 206.537 175.77C205.455 175.77 204.251 175.108 203.764 174.203Z" fill="#00A89B"/>
<path d="M108.14 206.595V186.946L101.701 199.811C101.471 200.324 100.998 200.595 100.443 200.595C99.929 200.595 99.4555 200.324 99.185 199.811L92.7866 186.946V206.595C92.7866 207.379 92.1643 208.014 91.3662 208.014C90.5681 208.014 89.9865 207.392 89.9865 206.595V181.014C90.027 180.23 90.6087 179.595 91.3662 179.595C91.8803 179.595 92.3808 179.906 92.6243 180.379L100.443 196.068L108.302 180.379C108.532 179.906 109.046 179.595 109.56 179.595C110.386 179.595 110.94 180.338 110.94 181.014V206.595C110.94 207.379 110.318 208.014 109.56 208.014C108.776 208.014 108.14 207.392 108.14 206.595Z" fill="#878787"/>
<path d="M117.014 200.189V187.406C117.014 183.135 120.504 179.595 124.833 179.595C129.161 179.595 132.651 183.122 132.651 187.406V200.189C132.651 204.5 129.161 208 124.833 208C120.504 208 117.014 204.514 117.014 200.189ZM119.801 187.406V200.189C119.801 202.933 122.033 205.216 124.833 205.216C127.633 205.216 129.865 202.946 129.865 200.189V187.406C129.865 184.662 127.592 182.379 124.833 182.379C122.073 182.379 119.801 184.649 119.801 187.406Z" fill="#878787"/>
<path d="M154.525 199.567C154.525 204.081 150.832 207.77 146.314 207.77H140.105C139.361 207.77 138.725 207.149 138.725 206.351V181.203C138.725 180.459 139.347 179.824 140.105 179.824H146.314C150.088 179.824 153.497 182.959 153.497 186.959C153.497 189.27 152.401 191.351 150.71 192.649C152.983 194.135 154.525 196.649 154.525 199.554V199.567ZM141.525 182.622V191.405H146.314C148.749 191.405 150.71 189.405 150.71 186.973C150.71 184.54 148.749 182.622 146.314 182.622H141.525ZM151.698 199.567C151.698 196.581 149.303 194.189 146.314 194.189H141.525V204.932H146.314C149.303 204.932 151.698 202.54 151.698 199.554V199.567Z" fill="#878787"/>
<path d="M171.556 206.352C171.556 207.135 170.933 207.771 170.135 207.771H160.315C159.53 207.771 158.894 207.149 158.894 206.352C158.894 205.554 159.516 204.933 160.315 204.933H163.845V182.649H160.315C159.53 182.649 158.894 182.027 158.894 181.23C158.894 180.433 159.516 179.811 160.315 179.811H170.135C170.92 179.811 171.556 180.433 171.556 181.23C171.556 182.027 170.933 182.649 170.135 182.649H166.645V204.933H170.135C170.92 204.933 171.556 205.554 171.556 206.352Z" fill="#878787"/>
<path d="M191.387 206.122C191.387 206.906 190.764 207.527 189.966 207.527H178.536C177.751 207.527 177.129 206.906 177.129 206.122V181.014C177.129 180.23 177.751 179.595 178.536 179.595C179.32 179.595 179.916 180.216 179.916 181.014V204.703H189.966C190.751 204.703 191.387 205.324 191.387 206.122Z" fill="#878787"/>
<path d="M210 206.351C210 207.135 209.378 207.77 208.58 207.77H197.271C196.527 207.77 195.891 207.149 195.891 206.351V181.203C195.891 180.459 196.513 179.824 197.271 179.824H208.458C209.242 179.824 209.865 180.446 209.865 181.203C209.865 181.986 209.242 182.622 208.458 182.622H198.678V191.324H207.322C208.106 191.324 208.742 191.946 208.742 192.73C208.742 193.513 208.12 194.108 207.322 194.108H198.678V204.932H208.58C209.364 204.932 210 205.554 210 206.351Z" fill="#878787"/>
</g>
<defs>
<clipPath id="clip0_1908_43970">
<rect width="120" height="176" fill="white" transform="translate(90 32)"/>
</clipPath>
</defs>
</svg>
